!!!OTL: 61g. Der gefangene Schueler.
!!!ODT: 1800 (um)
!!!ARE: Europa, Mitteleuropa, Deutschland; France, Elsass
!!!SCT: E0061K
!!!TXL: @@DE
!!!YEM: Copyright 1995, estate of Helmut Schaffrath.
**kern	**text
*ICvox	*
*M2/4	*
*k[f#]	*
*G:	*
=1	=1
!LO:TX:a:t=Langſam und ernſt.	!
!LO:TX:a:t=Aus dem Elſaß um 1800.	!
8r	.
{8d	Es
8g	liegt
8b	ein
=2	=2
(>4g	Schlößchen
8f#)	.
8g	im
=3	=3
8a	O-
8b/	-ſter-
4g	-reich
=4	=4
8r}	.
{8g	und
8b	iſt
8dd	es
=5	=5
8.ddL	ſchön
16cc	.
8bJ	.
8a	er-
=6	=6
4g	-bau-
4a	-en,
=7	=7
8r}	.
{8g	da-
8b	-rin
8g	da
=8	=8
8.ddL	wohnt
16ee	.
8ddJ	.
8b	ein
=9	=9
8a	al-
8g	-ter
(8aq	.
4cc)	Mann,
=10	=10
8r}	.
{8b/	da-
8a	-rin
8g	da
=11	=11
8.ddL	wohnt
16ee	.
8ddJ	.
8b	ein
=12	=12
8a	al-
8g	-ter
8aq	.
4cc	Mann,
=13	=13
8r}	.
{8b/	der
8a	hat
8g	viel
=14	=14
(8aq	.
4cc)	Geld
4b	ge-
=15	=15
4a	-ſtoh-
4g}	-len.
==	==
!!!AGN: erzaehlendes Volks - Lied, Sage, Mord, Ballade ?
!!!ONB: ESAC (Essen Associative Code) Database: ERK1
!!!AMT: simple duple
!!!AIN: vox
!!!EED: Helmut Schaffrath
!!!EEV: 1.0
!!!RDF**kern: > = above
!!!GTL: Sagen von Mordthaten, unschuldig Gesangeg und Hinrichtungen
!!!URL-scan: https://rosdok.uni-rostock.de/mcrviewer/recordIdentifier/rosdok_ppn745146120/iview2/phys_0278.iview2?x=-4.404412318551749&y=1210.386474797735&scale=0.6456904138606624&rotation=0&layout=singlePageLayout&logicalDiv=log_0009
!!!ENC: Anna Maria Matuszewska
!!!EEV: 2024/11/26
*-	*-
